X:1
T:[ID 3-13b]
T:[ID 3-13b]
T:Bezeichnung standardisiert: Polonaise Polonoise
T:Urheber unbekannt Datum in der hier transkribierten schriftlichen Quelle: 1776 - 1791
C:Urheber unbekannt
C:Datum in der hier transkribierten schriftlichen Quelle: 1776 - 1791
%%score 1 2
L:1/8
M:3/4
K:C
V:1 treble 
V:2 treble nm="Secondo"
V:1
 ce/c/ G2 f2 | ed/c/ B/c/d/B/ G2 | ce/c/ G2 f2 | e/d/c/B/ c2 C2 :: c/d/e/f/ gg g2 | %5
 a/g/f/e/ f2 d2 | B/c/d/e/ ff f2 | g/f/e/d/ e2 c2 | ce/c/ G2 f2 | ed/c/ B/c/d/B/ G2 | ce/c/ G2 f2 | %11
 e/d/c/B/ c2 C2 :| %12
V:2
 !fermata!EG/F/ E2 d2 | cB/A/ G/^F/G/A/ B2 | EG/F/ E2 d2 | c/E/F/D/ E2 E2 :: c/B/c/d/ ee e2 | %5
 f/e/d/c/ d2 B2 | G/A/B/c/ dd d2 | e/d/c/B/ c2 C2 | EG/F/ E2 d2 | cB/A/ G/^F/G/A/ B2 | %10
 EG/F/ E2 d2 | c/E/F/D/ E2 E2 :| %12

